!!!!SEGMENT: pl-cz--i-5_brzezinska-filipina--boze-litosny.krn
!!!cenid: 18xx:691
!!!COM: Brzezińska, Filipina
!!!COM-rismid: pe30085801
!!!CDT: 1800/01/01-1886/11/11
!!!CNT: Polish
!!!OTL: Boże litosny
!!!PDT:
!!!AGN: Sacred
!!!SMS-siglum: PL-CZ
!!!SMS-shelfmark: I-5
!!!SMS-shelfwork: W
!!!SMS-variant:
!!!SMS-altvar:
!!!NIFC-rismid: 300000051
!!!URL-scan: http://repozytorium.nifc.pl/skany/pl-cz-nut--i-5
!!!ONB-nifc:
**kern	**kern	**dynam	**kern	**text	**dynam	**kern	**text	**dynam
*part3	*part3	*part3	*part2	*part2	*part2	*part1	*part1	*part1
*staff4	*staff3	*	*staff2	*staff2	*	*staff1	*staff1	*
*Iempty	*Iorgan	*	*Iempty	*	*	*Iempty	*	*
*	*I"Fortepian lub Organ.	*	*I"2.	*	*	*I"1.	*	*
*	*I'P3	*	*I'P2	*	*	*I'P1	*	*
*group2	*group2	*	*group1	*	*	*group1	*	*
*clefF4	*clefG2	*	*clefG2	*	*	*clefG2	*	*
*k[b-]	*k[b-]	*	*k[b-]	*	*	*k[b-]	*	*
*F:	*F:	*	*F:	*	*	*F:	*	*
*M4/4	*M4/4	*	*M4/4	*	*	*M4/4	*	*
*met(c)	*met(c)	*	*met(c)	*	*	*met(c)	*	*
*>[A,B,B,C]	*>[A,B,B,C]	*	*>[A,B,B,C]	*	*	*>[A,B,B,C]	*	*
=1	=1	=1	=1	=1	=1	=1	=1	=1
*>A	*>A	*	*>A	*	*	*>A	*	*
*^	*^	*	*	*	*	*	*	*
!	!	!LO:TX:a:i:t=Religioso.	!	!	!LO:TX:a:i:t=Religioso.	!	!	!LO:TX:a:i:t=Religioso.	!	!
4F'\ 4c	2ryy	4a/	4f\	.	4f/	Bo-	.	4a/	Bo-	.
8.F\ 8.c	.	8.a/	8.f\	.	8.f/	-że	.	8.a/	-że	.
16F\ 16c	.	16a/	16f\	.	16f/	li-	.	16a/	li-	.
4A'^/	4F\	4cc/	4a\	.	4a\	-to-	.	4cc'\	-to-	.
4c/	4F\	4a/	4f\	.	4f/	-sny	.	4a'/	-sny	.
=2	=2	=2	=2	=2	=2	=2	=2	=2	=2	=2
4d/	[4F\	4b-/	4f\	.	4g^/	strzeż	.	4b-^>\	strzeż	.
!	!	!LO:N:vis=4.	!	!	!	!	!	!	!	!
(8.c/	8.F\_	(8.cc/	(8.f\	.	(8.a/	dzie-	.	(8.cc\L	dzie-	.
16B-/)	16F\]	16dd/)	16f\)	.	16b-/)	-ci	.	16dd\Jk)	-ci	.
2A'/	2F\	2cc/	2f\	.	2a\	Twe,	.	2cc'\	Twe,	.
=3	=3	=3	=3	=3	=3	=3	=3	=3	=3	=3
4F/	4FF\ 4C	4f/	4A\	.	4A/	od-	.	4f/	od-	.
8.F/	8.FF\ 8.C	8.f/	8.A\	.	8.A/	-wra-	.	8.f/	-wra-	.
16F/	16FF\	16f/	16A\	.	16A/	-caj	.	16f/	-caj	.
!	!	!LO:TX:a:i:t= Słowa K. Brzezińskiego. \nMuzyka F. Brzezińskiej.	!	!	!	!	!	!LO:TX:a:i:t= Słowa K. Brzezińskiego \nMuzyka F. Brzezińskiej.	!	!
2ryy	4FF\ 4F	4a^/	4c\	.	4c/	od	.	4cc/	od	.
!	!	!	!	!	!LO:TX:a:i:t= Słowa K. Brzezińskiego. \nMuzyka F. Brzezińskiej.	!	!	!	!	!
.	4FF\ 4C	4f/	4A\	.	4A/	nich	.	4f/	nich	.
=4	=4	=4	=4	=4	=4	=4	=4	=4	=4	=4
4C/	4CC\	4a/	4c\	.	4c/	wsze-	.	4a/	wsze-	.
8.E/	8.C\	8.g/	8.B-\	.	8.B-/	-la-	.	8.g/	-la-	.
16E/	16CC\ 16C	16a/	16c\	.	16A/	-kie	.	16a/	-kie	.
!	!	!	!	!LO:DY:b:t=f.p.	!	!	!	!	!	!
2F/	2FF\	2f/	2A\	fp	2A/	złe	.	2f\	złe	.
*v	*v	*	*	*	*	*	*	*	*	*
!	!LO:LB:g=original	!	!	!LO:LB:g=original	!	!	!LO:LB:g=original	!	!
=5	=5	=5	=5	=5	=5	=5	=5	=5	=5
*^	*	*	*	*	*	*	*	*	*
4c/	4F\	4a/	4f\	.	4f/	Niech	.	4a/	Niech	.
8.c/	8.F\	8.a/	8.f\	.	8.f/	łas-	.	8.a/	łas-	.
16c/	16F\	16a/	16f\	.	16f/	-ka	.	16a/	-ka	.
4A'/	4F\	4cc'/	4a\	.	4a\	Two-	.	4cc\	Two-	.
4c'/	4F\	4ff'/	4a\	.	4a\	-ja	.	4ff\	-ja	.
=6	=6	=6	=6	=6	=6	=6	=6	=6	=6	=6
4c#X/	4A\	4ff/	4g\	.	4a\	nad	.	4ff\	nad	.
!	!	!	!	!	!LO:TX:a:t=P:problem:zapis dynamiki na 2. linii	!	!	!LO:TX:a:t=P:problem:zapis dynamiki na drugiej linii	!	!
!	!	!	!	!	!	!	!LO:DY:b:t=f.p.	!	!	!LO:DY:b:t=fp.
[8.c#^/	8.A\	8.ff/	8.g\	.	8.a^>/	na-	fp	8.ff^>\	na-	fp
16c#/]	16A\	16ee/	16g\	.	16cc\	-mi	.	16ee\	-mi	.
2d/	2A\ 2D	2dd/	2f\	.	2b-\	lśni	.	2dd\	lśni,	.
*v	*v	*	*	*	*	*	*	*	*	*
=7	=7	=7	=7	=7	=7	=7	=7	=7	=7
!	!LO:N:vis=4	!	!	!	!	!	!	!	!
4F'\	4dd/	4f\ 4a	<	4b-\	Pro-	.	4dd\	pro-	.
[8F\	(8ee/	4ryy	.	8cc\	-si-	.	8ee\	-si-	.
8F\]	8ff/)	.	.	8dd\	-my	.	8ff\	-my	.
!	!	!	!LO:DY:b:t=f.p.	!	!	!	!	!	!
4E\	4gg/	4g\ 4cc	[ fp	(4ee\	Cie-	.	(4gg\	Cie-	.
8C\L	(8ee/	8g\ 8cc	.	8cc\)	.	.	8ee\)	.	.
8E\J	8cc/)	8e\ 8g	.	8e/	-bie	.	8cc\	-bie	.
=8	=8	=8	=8	=8	=8	=8	=8	=8	=8
*^	*	*	*	*	*	*	*	*	*
[4G'\	2ryy	4c/ 4e 4g	4rcccyy	.	4B-/	przez	.	4g/	przez	.
!	!	!	!LO:N:vis=2	!	!	!	!	!	!	!
4GG^\ 4G]	.	8bn^/ 8ee	4f\	.	8.g/	rzew-	.	8.ee^>\	rzew-	.
.	.	8dd/	.	.	.	.	.	.	.	.
.	.	.	.	.	16f/	-ne	.	16dd\	-ne	.
4c\;	2C;\ 2G	2cc;/	2e;\	.	2e;/	łzy	.	2cc;\	łzy.	.
8qqd/L	.	.	.	.	.	.	.	.	.	.
8qqc/J	.	.	.	.	.	.	.	.	.	.
8qqB-/L	.	.	.	.	.	.	.	.	.	.
8qqG/	.	.	.	.	.	.	.	.	.	.
8qqF/	.	.	.	.	.	.	.	.	.	.
8qqE/J	.	.	.	.	.	.	.	.	.	.
4ryy	.	.	.	.	.	.	.	.	.	.
!LO:LB:g=original	!	!LO:LB:g=original	!	!	!LO:LB:g=original	!	!	!LO:LB:g=original	!	!
!	!	!LO:TX:a:t=P:problem:brak oznaczenia repetycji	!	!	!	!	!	!	!	!
=9!|:	=9!|:	=9!|:	=9!|:	=9!|:	=9!|:	=9!|:	=9!|:	=9!|:	=9!|:	=9!|:
*>B	*	*>B	*	*	*>B	*	*	*>B	*	*
!	!	!	!	!LO:DY:b:t=f.p.	!LO:SIC:l:s=Przez:v	!	!	!LO:SIC:l:s=Przez:v	!	!
4CC'/ 4C	4ryy	4cc'</	4e'\ 4b-	fp	4a/	Prze	.	4cc'\	prze	.
8G/ 8c	8C\	8b-/ 8dd	8e\	.	8b-/	świę-	.	8dd\	świę-	.
8G/ 8c	8C\	8b-/ 8cc	8e\	.	8a/	-tość	.	8cc\	-tość	.
!	!	!	!	!	!LO:TX:a:t=P:problem:zapis dynamiki na 3. linii	!	!	!LO:TX:a:t=P:problem:zapis dynamiki na 1. linii	!	!
!	!	!	!	!LO:DY:b:t=f.p.	!	!	!LO:DY:a:t=f.p.	!	!	!LO:DY:b:t=fp.
4c/	4F\	4ff/	4f\ 4a	fp	4a/	Sy-	fp	4ff\	Sy-	fp
4c;/	4F\	4cc/ 4e'</ 4a/	4ryy	.	4a/	-na	.	4cc'\	-na	.
=10	=10	=10	=10	=10	=10	=10	=10	=10	=10	=10
4c/	4C\ 4G	4b-/ 4cc	4e\	.	4a/	Two-	.	4cc\	Two-	.
8c/	8C\ 8G	8dd/	8f\	.	8b-^>/	-je-	.	8dd\	-je-	.
8c/	8C\ 8G	8b-/ 8cc	8e\	.	8a/	-go	.	8cc\	-go	.
2r	8F'>\	2ff;/	2f;\ 2a	.	2a;\	ran,	.	2ff;\	ran,	.
.	8C'>\	.	.	.	.	.	.	.	.	.
.	8AA'>\	.	.	.	.	.	.	.	.	.
.	8FF'>\	.	.	.	.	.	.	.	.	.
=11	=11	=11	=11	=11	=11	=11	=11	=11	=11	=11
!LO:TX:b:i:t=Ped.	!	!	!	!	!	!	!	!	!	!LO:DY:a
4CC/ 4C	4ryy	4cc/	4e\ 4b-	.	4a\	od-	.	4cc'\	Od-	<
8c/	8C\ 8G	8dd/	8e\ 8b-	.	8b-/	-puść	.	8dd\	-puść	.
8c/	8C\ 8G	8cc/	8e\ 8b-	.	8a/	nam	.	8cc\	nam	[
!	!	!	!	!	!	!	!	!LO:TX:a:t=P:problem:zapis dynamiki na 3. linii	!	!
!	!	!	!	!LO:DY:b:t=f.p.	!	!	!	!	!	!LO:DY:a:t=fp.
4c\	2ryy	4aa/	4a\ 4cc	fp	(4cc\	grze-	.	(4aa\	grze-	fp
!LO:N:vis=4	!	!LO:N:vis=4	!	!	!	!	!	!	!	!
8BB-'\ 8B-	.	8ff/	8dd\	.	8a/)	.	.	8ff\)	.	.
8d'\	.	8dd/	8b-\	.	8f/	-chy	.	8dd\	-chy	.
!LO:LB:g=original	!	!LO:LB:g=original	!	!	!	!	!	!	!	!
=12	=12	=12	=12	=12	=12	=12	=12	=12	=12	=12
!	!	!	!	!LO:DY:b:t=p.	!	!	!	!	!	!
4f/	4f'>\	4f/ 4a 4cc	4ryy	p	4e/	boś	.	4cc\	boś	.
4ryy	8C\ 8G	8b-/	8f\	.	8d/	Ty	.	8b-\	Ty	.
.	8C\ 8G	8cc/	8e\	.	8e/	nasz	.	8cc\	nasz	.
4c/	8F\	2f/ 2a	2ryy	.	2f/	Pan.	.	2a/	Pan,	.
.	8C\	.	.	.	.	.	.	.	.	.
4r	8AA\	.	.	.	.	.	.	.	.	.
.	8FF\	.	.	.	.	.	.	.	.	.
!	!	!LO:LB:g=original	!	!	!LO:LB:g=original	!	!	!LO:LB:g=original	!	!
=13	=13	=13	=13	=13	=13	=13	=13	=13	=13	=13
!	!	!	!	!LO:DY:b:t=f.p.	!	!	!	!	!	!
4CC/ 4C	4ryy	4b-/ 4cc	4e\	fp	4a/	Daj	.	4cc\	Daj	.
4ryy	8C\ 8G 8c	8b-/ 8dd	8e\	.	8b-/	nam	.	8dd^\	nam	.
.	8C\ 8F 8c	8b-/ 8cc	8e\	.	8a/	zba-	.	8cc\	zba-	.
!	!	!	!	!	!	!	!	!LO:TX:a:t=P:problem:zapis dynamiki na 2. linii	!	!
!	!	!	!	!	!	!	!	!	!	!LO:DY:a:t=fp.
4c^/	4F\	4ff/	4f\ 4a	.	4a^>/	-wie-	.	4ff^>\	-wie-	fp
4A/	4F\	4cc/	4f\ 4a	.	4a/	-nia	.	4cc'\	-nia	.
*v	*v	*	*	*	*	*	*	*	*	*
=14	=14	=14	=14	=14	=14	=14	=14	=14	=14
!	!	!	!	!LO:N:vis=4	!	!	!LO:N:vis=4	!	!
!	!LO:TX:a:t=P:problem:przekroczona miara taktu	!	!	!LO:TX:a:t=P:problem:powiększona miara taktu	!	!	!LO:TX:a:t=P:problem:przekroczona miara taktu	!	!
4C^\ 4G 4c	4b-/ 4cc	4e^\	.	2a/	prze-	.	2cc\	prze-	.
4C\ 4G 4c	4ryy	4d\ 4b-	.	.	.	.	.	.	.
4r	(16dd/LL	4ryy	.	(16b-\LL	-stą-	.	(16dd\LL	-stą-	.
.	16ee/	.	.	16cc\	.	.	16ee\	.	.
.	16ff/	.	.	16a\	-pić	.	16ff\	-pić	.
.	16gg/JJ)	.	.	16b-\JJ)	.	.	16gg\JJ)	.	.
!	!	!	!	!LO:TX:a:t=P:problem:zapis dynamiki na 2. linii	!	!	!LO:TX:a:t=P:problem:zapis dynamiki na 4. linii	!	!
!	!	!	!LO:DY:b:t=f.p.	!	!	!LO:DY:b:t=f.p.	!LO:TX:a:t=P:problem:znak fermaty pod nutą	!	!LO:DY:a:t=fp.
2CC#X/ 2C#X	2aa;/	2a\ 2ee	fp	2cc;\	próg.	fp	2aa;\	próg.	fp
=15	=15	=15	=15	=15	=15	=15	=15	=15	=15
*^	*	*	*	*	*	*	*	*	*
4DD/ 4D	2ryy	4ff/ 4aa	4a\ 4dd	.	4cc\	Boś	.	4aa\	Boś	.
8.BBB-/ 8.BB-	.	8.dd/ 8.ff	8.f\	.	8.a/	Ty	.	8.ff\	Ty	.
16BBB-/ 16BB-	.	16dd/	16f\ 16b-	.	16b-/	nasz	.	16dd\	nasz	.
!LO:N:vis=4	!	!LO:N:vis=4	!	!	!	!	!	!	!	!
[2C/	[2CC\	4f/ 4a 4cc	2ryy	.	4cc\	stwór-	.	4cc\	stwór-	.
!LO:TX:a:t=P:problem:brak łuku z tej strony kreski taktowej	!	!	!	!	!	!	!	!LO:N:vis=8.	!	!
.	.	8A/ 8f	.	.	(8.A/	-ca	.	(8f/	-ca	.
.	.	8B-/ 8g	.	.	.	.	.	8g/)	.	.
.	.	.	.	.	16B-/)	.	.	.	.	.
!LO:LB:g=original	!	!LO:LB:g=original	!	!	!LO:LB:g=original	!	!	!	!	!
=16	=16	=16	=16	=16	=16	=16	=16	=16	=16	=16
!	!	!LO:TX:a:t=P:problem:brak caudy	!	!	!LO:TX:a:t=P:problem:zapis dynamiki na 3. linii	!	!	!	!	!
!	!	!LO:TX:a:t=P:problem:przekroczona miara taktu	!	!	!LO:TX:a:t=P:problem:przekroczona miara taktu	!	!LO:DY:b:t=mf.	!LO:TX:a:t=P:problem:rozszerzona miara taktu	!	!
4C/]	4CC\]	4a/	4c\	.	4c/	Boś	mf	4a/	Boś	.
4C/	4CC^\	4.a^/	4B-\ 4e	.	4.c^>/	Ty	.	4.a/^>	Ty	.
!	!	!LO:N:vis=2.	!	!	!	!	!	!	!	!
2.C;/ 2.F	2FF;\	.	4ryy	.	.	.	.	.	.	.
.	.	8g/	.	.	8B-/	nasz	.	8g/	nasz	.
.	.	2f;/	2A;\	.	2A;/	Bóg.	.	2f/	Bóg.	.
.	4ryy	.	.	.	.	.	.	.	.	.
*	*	*v	*v	*	*	*	*	*	*	*
=17:|!	=17:|!	=17:|!	=17:|!	=17:|!	=17:|!	=17:|!	=17:|!	=17:|!	=17:|!
*>C	*	*>C	*	*>C	*	*	*>C	*	*
8F/	8FF\	8f/	.	1ryy	.	.	1ryy	.	.
8ryy	8F\L	8A/L	.	.	.	.	.	.	.
4ryy	8G\	8B-/	.	.	.	.	.	.	.
.	8G#X\J	8Bn/J	.	.	.	.	.	.	.
2ryy	4A\	8c/L	.	.	.	.	.	.	.
.	.	8c#X/	.	.	.	.	.	.	.
!	!	!	!LO:DY:b:t=fp.	!	!	!	!	!	!
.	8Bn\L	8d/	fp	.	.	.	.	.	.
.	8B-X\J	8e/J	.	.	.	.	.	.	.
*v	*v	*	*	*	*	*	*	*	*
=18	=18	=18	=18	=18	=18	=18	=18	=18
8A\L	8f/L	.	1ryy	.	.	1ryy	.	.
8E\J	8g/	.	.	.	.	.	.	.
8F\L	8a/	.	.	.	.	.	.	.
8BB-\J	8b-/J	.	.	.	.	.	.	.
4C\	4c/ 4f 4a	.	.	.	.	.	.	.
4CC/	4B-^/ 4e 4g	.	.	.	.	.	.	.
=19	=19	=19	=19	=19	=19	=19	=19	=19
8FF\ 8C 8F	8A/ 8f	.	1ryy	.	.	1ryy	.	.
(8F\L	8a\L 8ff	.	.	.	.	.	.	.
8G\	8b-\ 8ee	.	.	.	.	.	.	.
8A\J)	8cc\J 8ee-X	.	.	.	.	.	.	.
(8B-\L	8f\L 8b- 8dd	.	.	.	.	.	.	.
8c\J)	8f\J 8a 8cc	.	.	.	.	.	.	.
!	!	!LO:DY:b:t=f.p.	!	!	!	!	!	!
4d-X\	4f\ 4a-X 4bn	fp	.	.	.	.	.	.
!LO:PB:g=original	!LO:PB:g=original	!	!	!	!	!	!	!
=20	=20	=20	=20	=20	=20	=20	=20	=20
4c\	4f\ 4a 4cc	.	1ryy	.	.	1ryy	.	.
4CC/ 4C	8B-/L 8e 8g	.	.	.	.	.	.	.
.	8a/J	.	.	.	.	.	.	.
4FF\ 4C	4A/ 4f	.	.	.	.	.	.	.
8.BBn\	4r	.	.	.	.	.	.	.
16C\	.	.	.	.	.	.	.	.
=21	=21	=21	=21	=21	=21	=21	=21	=21
*^	*	*	*	*	*	*	*	*
4r	4C\	0r	.	1ryy	.	.	1ryy	.	.
4G/ 4B- 4c 4e	4CC\ 4C	.	.	.	.	.	.	.	.
4.A/ 4.f	4.FF\ 4.C	.	.	.	.	.	.	.	.
8A/ 8c	8FF\ 8C 8F	.	.	.	.	.	.	.	.
=22	=22	=22	=22	=22	=22	=22	=22	=22	=22
!	!	!	!LO:DY:b:t=p.	!	!	!	!	!	!
2.F/ 2.A	2.FF\ 2.C	.	p	1ryy	.	.	1ryy	.	.
4A/ 4c	4FF\ 4C	.	.	.	.	.	.	.	.
*v	*v	*	*	*	*	*	*	*	*
=23	=23	=23	=23	=23	=23	=23	=23	=23
!	!LO:TX:b:i:t=perpentosi	!	!	!	!	!	!	!
1FF 1C 1A	1f	.	1ryy	.	.	1ryy	.	.
==	==	==	==	==	==	==	==	==
*-	*-	*-	*-	*-	*-	*-	*-	*-
!!!system-decoration: [(g1)][(g2)]
!!!RDF**kern: >= above
!!!RDF**kern: <= below
!!!AIN: 3 empty
!!!ENC: Anastazja Marusiak
!!!END: 2020-06-26
!!!ENC: Anna Matuszewska
!!!END: 2020-12-15
